assets/images/item_44426.svg

<svg xmlns="http://www.w3.org/2000/svg" version="1.1" width="139px" height="49.4px" viewBox="0 0 139 49.4"><desc>tap to reveal more images</desc><defs/><g id="Polygon48321"><path d="m1.1 16.7l2.7 0l2.7 7l2.7-7l2.6 0l0 9.9l-1.7 0l0-8.2l0 0l-3 8.2l-1.2 0l-3-8.2l-.1 0l0 8.2l-1.7 0l0-9.9zm17.6-.2c3.1-.1 5.3 2 5.3 5.2c0 3.1-2.2 5.1-5.3 5.2c-3 0-5.2-2.1-5.2-5.2c0-3.2 2.2-5.2 5.2-5.2zm0 8.8c2.1 0 3.5-1.6 3.5-3.7c0-2-1.4-3.5-3.5-3.5c-2 0-3.4 1.5-3.4 3.5c0 2.1 1.4 3.7 3.4 3.7zm7-8.6c0 0 3.42.03 3.4 0c1.9 0 3.7.6 3.7 2.9c0 1.4-.8 2.4-2.3 2.7c.02-.04 2.6 4.3 2.6 4.3l-2.1 0l-2.3-4.2l-1.3 0l0 4.2l-1.7 0l0-9.9zm3.1 4.2c1 0 2.2-.1 2.2-1.3c0-1.2-1.1-1.4-2-1.4c-.04.04-1.6 0-1.6 0l0 2.7c0 0 1.41.03 1.4 0zm5.7-4.2l6.6 0l0 1.6l-4.9 0l0 2.5l4.6 0l0 1.6l-4.6 0l0 2.6l5.1 0l0 1.6l-6.8 0l0-9.9zm12.6 0l1.8 0l0 9.9l-1.8 0l0-9.9zm4 0l2.6 0l2.7 7l2.7-7l2.6 0l0 9.9l-1.7 0l0-8.2l0 0l-3 8.2l-1.2 0l-3-8.2l-.1 0l0 8.2l-1.6 0l0-9.9zm16.1 0l1.5 0l4.3 9.9l-2 0l-1-2.2l-4.3 0l-.9 2.2l-1.9 0l4.3-9.9zm2.2 6.2l-1.5-4.1l-1.6 4.1l3.1 0zm13 3c-1.2.7-2.6 1-4.1 1c-3 0-5.2-2.1-5.2-5.2c0-3.2 2.2-5.2 5.2-5.2c1.5 0 2.9.3 3.9 1.2c0 0-1.3 1.3-1.3 1.3c-.6-.6-1.6-.9-2.6-.9c-2 0-3.4 1.5-3.4 3.5c0 2.1 1.4 3.7 3.4 3.7c.9 0 1.7-.2 2.3-.5c.05-.02 0-2.4 0-2.4l-2 0l0-1.6l3.8 0c0 0 .01 5.11 0 5.1zm2.1-9.2l6.5 0l0 1.6l-4.8 0l0 2.5l4.6 0l0 1.6l-4.6 0l0 2.6l5.1 0l0 1.6l-6.8 0l0-9.9zm13.4 2.2c-.4-.6-1.1-.8-1.7-.8c-.9 0-1.7.3-1.7 1.2c0 2 4.7.9 4.7 4.4c0 2.2-1.6 3.2-3.6 3.2c-1.2 0-2.4-.4-3.2-1.4c0 0 1.3-1.2 1.3-1.2c.4.6 1.2 1 2 1c.8 0 1.7-.5 1.7-1.4c0-2.1-4.7-.9-4.7-4.4c0-2.1 1.8-3 3.6-3c1.1 0 2.1.3 2.9 1c0 0-1.3 1.4-1.3 1.4zm4 5.7c.6 0 1.1.4 1.1 1c0 .6-.5 1.1-1.1 1.1c-.6 0-1.1-.4-1.1-1c0-.6.5-1.1 1.1-1.1z" stroke="none" fill="#808284"/></g><g id="Polygon48320"><path d="m3.1 2.3l-3 0l0-1.6l7.8 0l0 1.6l-3 0l0 8.3l-1.8 0l0-8.3zm8.2-1.6l1.5 0l4.3 9.9l-2 0l-.9-2.2l-4.3 0l-.9 2.2l-2 0l4.3-9.9zm2.3 6.2l-1.6-4.1l-1.5 4.1l3.1 0zm4.6-6.2c0 0 3.36.03 3.4 0c1.9 0 3.6.7 3.6 2.9c0 2.5-1.8 2.9-3.9 2.9c-.05.04-1.3 0-1.3 0l0 4.1l-1.8 0l0-9.9zm2.9 4.3c1 0 2.3 0 2.3-1.4c0-1.2-1.2-1.4-2.1-1.4c-.05.04-1.3 0-1.3 0l0 2.8c0 0 1.06.03 1.1 0zm11.9-2.7l-3.1 0l0-1.6l7.9 0l0 1.6l-3.1 0l0 8.3l-1.7 0l0-8.3zm10.4-1.8c3.1-.1 5.3 2 5.3 5.2c0 3.1-2.2 5.1-5.3 5.2c-3 0-5.2-2.1-5.2-5.2c0-3.2 2.2-5.2 5.2-5.2zm0 8.8c2.1 0 3.5-1.6 3.5-3.7c0-2-1.4-3.5-3.5-3.5c-2 0-3.4 1.5-3.4 3.5c0 2.1 1.4 3.7 3.4 3.7zm11.1-8.6c0 0 3.48.03 3.5 0c1.9 0 3.7.6 3.7 2.9c0 1.4-.9 2.4-2.3 2.7c-.02-.04 2.6 4.3 2.6 4.3l-2.1 0l-2.3-4.2l-1.3 0l0 4.2l-1.8 0l0-9.9zm3.2 4.2c1 0 2.1-.1 2.1-1.3c0-1.2-1.1-1.4-2-1.4c.02.04-1.5 0-1.5 0l0 2.7c0 0 1.37.03 1.4 0zm5.6-4.2l6.6 0l0 1.6l-4.8 0l0 2.5l4.6 0l0 1.6l-4.6 0l0 2.6l5.1 0l0 1.6l-6.9 0l0-9.9zm7.6 0l2 0l2.7 7.5l2.8-7.5l1.9 0l-4 9.9l-1.5 0l-3.9-9.9zm10.5 0l6.6 0l0 1.6l-4.8 0l0 2.5l4.5 0l0 1.6l-4.5 0l0 2.6l5 0l0 1.6l-6.8 0l0-9.9zm12 0l1.5 0l4.3 9.9l-2 0l-.9-2.2l-4.3 0l-.9 2.2l-2 0l4.3-9.9zm2.2 6.2l-1.5-4.1l-1.5 4.1l3 0zm4.7-6.2l1.8 0l0 8.3l4.2 0l0 1.6l-6 0l0-9.9z" stroke="none" fill="#808284"/></g></svg>

<?xml version="1.0" standalone="no"?><!DOCTYPE svg PUBLIC "-//W3C//DTD SVG 1.1//EN" "http://www.w3.org/Graphics/SVG/1.1/DTD/svg11.dtd"><svg xmlns="http://www.w3.org/2000/svg" version="1.1" width="139px" height="49.4px" viewBox="0 0 139 49.4">  <desc>tap to reveal more images</desc>  <defs/>  <g id="Polygon48152">    <path d="M 1.1 16.7 L 3.8 16.7 L 6.5 23.7 L 9.2 16.7 L 11.8 16.7 L 11.8 26.6 L 10.1 26.6 L 10.1 18.4 L 10.1 18.4 L 7.1 26.6 L 5.9 26.6 L 2.9 18.4 L 2.8 18.4 L 2.8 26.6 L 1.1 26.6 L 1.1 16.7 Z M 18.7 16.5 C 21.8 16.4 24 18.5 24 21.7 C 24 24.8 21.8 26.8 18.7 26.9 C 15.7 26.9 13.5 24.8 13.5 21.7 C 13.5 18.5 15.7 16.5 18.7 16.5 Z M 18.7 25.3 C 20.8 25.3 22.2 23.7 22.2 21.6 C 22.2 19.6 20.8 18.1 18.7 18.1 C 16.7 18.1 15.3 19.6 15.3 21.6 C 15.3 23.7 16.7 25.3 18.7 25.3 Z M 25.7 16.7 C 25.7 16.7 29.12 16.73 29.1 16.7 C 31 16.7 32.8 17.3 32.8 19.6 C 32.8 21 32 22 30.5 22.3 C 30.52 22.26 33.1 26.6 33.1 26.6 L 31 26.6 L 28.7 22.4 L 27.4 22.4 L 27.4 26.6 L 25.7 26.6 L 25.7 16.7 Z M 28.8 20.9 C 29.8 20.9 31 20.8 31 19.6 C 31 18.4 29.9 18.2 29 18.2 C 28.96 18.24 27.4 18.2 27.4 18.2 L 27.4 20.9 C 27.4 20.9 28.81 20.93 28.8 20.9 Z M 34.5 16.7 L 41.1 16.7 L 41.1 18.3 L 36.2 18.3 L 36.2 20.8 L 40.8 20.8 L 40.8 22.4 L 36.2 22.4 L 36.2 25 L 41.3 25 L 41.3 26.6 L 34.5 26.6 L 34.5 16.7 Z M 47.1 16.7 L 48.9 16.7 L 48.9 26.6 L 47.1 26.6 L 47.1 16.7 Z M 51.1 16.7 L 53.7 16.7 L 56.4 23.7 L 59.1 16.7 L 61.7 16.7 L 61.7 26.6 L 60 26.6 L 60 18.4 L 60 18.4 L 57 26.6 L 55.8 26.6 L 52.8 18.4 L 52.7 18.4 L 52.7 26.6 L 51.1 26.6 L 51.1 16.7 Z M 67.2 16.7 L 68.7 16.7 L 73 26.6 L 71 26.6 L 70 24.4 L 65.7 24.4 L 64.8 26.6 L 62.9 26.6 L 67.2 16.7 Z M 69.4 22.9 L 67.9 18.8 L 66.3 22.9 L 69.4 22.9 Z M 82.4 25.9 C 81.2 26.6 79.8 26.9 78.3 26.9 C 75.3 26.9 73.1 24.8 73.1 21.7 C 73.1 18.5 75.3 16.5 78.3 16.5 C 79.8 16.5 81.2 16.8 82.2 17.7 C 82.2 17.7 80.9 19 80.9 19 C 80.3 18.4 79.3 18.1 78.3 18.1 C 76.3 18.1 74.9 19.6 74.9 21.6 C 74.9 23.7 76.3 25.3 78.3 25.3 C 79.2 25.3 80 25.1 80.6 24.8 C 80.65 24.78 80.6 22.4 80.6 22.4 L 78.6 22.4 L 78.6 20.8 L 82.4 20.8 C 82.4 20.8 82.41 25.91 82.4 25.9 Z M 84.5 16.7 L 91 16.7 L 91 18.3 L 86.2 18.3 L 86.2 20.8 L 90.8 20.8 L 90.8 22.4 L 86.2 22.4 L 86.2 25 L 91.3 25 L 91.3 26.6 L 84.5 26.6 L 84.5 16.7 Z M 97.9 18.9 C 97.5 18.3 96.8 18.1 96.2 18.1 C 95.3 18.1 94.5 18.4 94.5 19.3 C 94.5 21.3 99.2 20.2 99.2 23.7 C 99.2 25.9 97.6 26.9 95.6 26.9 C 94.4 26.9 93.2 26.5 92.4 25.5 C 92.4 25.5 93.7 24.3 93.7 24.3 C 94.1 24.9 94.9 25.3 95.7 25.3 C 96.5 25.3 97.4 24.8 97.4 23.9 C 97.4 21.8 92.7 23 92.7 19.5 C 92.7 17.4 94.5 16.5 96.3 16.5 C 97.4 16.5 98.4 16.8 99.2 17.5 C 99.2 17.5 97.9 18.9 97.9 18.9 Z M 101.9 24.6 C 102.5 24.6 103 25 103 25.6 C 103 26.2 102.5 26.7 101.9 26.7 C 101.3 26.7 100.8 26.3 100.8 25.7 C 100.8 25.1 101.3 24.6 101.9 24.6 Z " stroke="none" fill="#808284"/>  </g>  <g id="Polygon48151">    <path d="M 3.1 2.3 L 0.1 2.3 L 0.1 0.7 L 7.9 0.7 L 7.9 2.3 L 4.9 2.3 L 4.9 10.6 L 3.1 10.6 L 3.1 2.3 Z M 11.3 0.7 L 12.8 0.7 L 17.1 10.6 L 15.1 10.6 L 14.2 8.4 L 9.9 8.4 L 9 10.6 L 7 10.6 L 11.3 0.7 Z M 13.6 6.9 L 12 2.8 L 10.5 6.9 L 13.6 6.9 Z M 18.2 0.7 C 18.2 0.7 21.56 0.73 21.6 0.7 C 23.5 0.7 25.2 1.4 25.2 3.6 C 25.2 6.1 23.4 6.5 21.3 6.5 C 21.25 6.54 20 6.5 20 6.5 L 20 10.6 L 18.2 10.6 L 18.2 0.7 Z M 21.1 5 C 22.1 5 23.4 5 23.4 3.6 C 23.4 2.4 22.2 2.2 21.3 2.2 C 21.25 2.24 20 2.2 20 2.2 L 20 5 C 20 5 21.06 5.03 21.1 5 Z M 33 2.3 L 29.9 2.3 L 29.9 0.7 L 37.8 0.7 L 37.8 2.3 L 34.7 2.3 L 34.7 10.6 L 33 10.6 L 33 2.3 Z M 43.4 0.5 C 46.5 0.4 48.7 2.5 48.7 5.7 C 48.7 8.8 46.5 10.8 43.4 10.9 C 40.4 10.9 38.2 8.8 38.2 5.7 C 38.2 2.5 40.4 0.5 43.4 0.5 Z M 43.4 9.3 C 45.5 9.3 46.9 7.7 46.9 5.6 C 46.9 3.6 45.5 2.1 43.4 2.1 C 41.4 2.1 40 3.6 40 5.6 C 40 7.7 41.4 9.3 43.4 9.3 Z M 54.5 0.7 C 54.5 0.7 57.98 0.73 58 0.7 C 59.9 0.7 61.7 1.3 61.7 3.6 C 61.7 5 60.8 6 59.4 6.3 C 59.38 6.26 62 10.6 62 10.6 L 59.9 10.6 L 57.6 6.4 L 56.3 6.4 L 56.3 10.6 L 54.5 10.6 L 54.5 0.7 Z M 57.7 4.9 C 58.7 4.9 59.8 4.8 59.8 3.6 C 59.8 2.4 58.7 2.2 57.8 2.2 C 57.82 2.24 56.3 2.2 56.3 2.2 L 56.3 4.9 C 56.3 4.9 57.67 4.93 57.7 4.9 Z M 63.3 0.7 L 69.9 0.7 L 69.9 2.3 L 65.1 2.3 L 65.1 4.8 L 69.7 4.8 L 69.7 6.4 L 65.1 6.4 L 65.1 9 L 70.2 9 L 70.2 10.6 L 63.3 10.6 L 63.3 0.7 Z M 70.9 0.7 L 72.9 0.7 L 75.6 8.2 L 78.4 0.7 L 80.3 0.7 L 76.3 10.6 L 74.8 10.6 L 70.9 0.7 Z M 81.4 0.7 L 88 0.7 L 88 2.3 L 83.2 2.3 L 83.2 4.8 L 87.7 4.8 L 87.7 6.4 L 83.2 6.4 L 83.2 9 L 88.2 9 L 88.2 10.6 L 81.4 10.6 L 81.4 0.7 Z M 93.4 0.7 L 94.9 0.7 L 99.2 10.6 L 97.2 10.6 L 96.3 8.4 L 92 8.4 L 91.1 10.6 L 89.1 10.6 L 93.4 0.7 Z M 95.6 6.9 L 94.1 2.8 L 92.6 6.9 L 95.6 6.9 Z M 100.3 0.7 L 102.1 0.7 L 102.1 9 L 106.3 9 L 106.3 10.6 L 100.3 10.6 L 100.3 0.7 Z " stroke="none" fill="#808284"/>  </g></svg>
